!! 00006] TT[TB
!! Eigene Aufnahme
!!!OTL: Zhengduihua
!!!ARE: Asia, China,Liaoning, Shenyang
!! Ethnic Group: Han
!! III, 296
!!!SCT: C0155
!!!YEM: Copyright 1995, estate of Helmut Schaffrath.
**kern
*ICvox
*Ivox
*M2/4
*k[b-]
*F:
{8.dd
16ff
8dd
8cc
=1
8.dd
16ff
8dd
8cc
=2
8.a
16g
16a
16g
16a
16cc
=3
8dd
8cc
8dd
8ff}
=4
{8.cc
16dd
8cc
8a
=5
8.g
16a
8cc
8cc
=6
8cc
8cc
8cc
8e
=7
2d}
=8
{8dd
8dd
8dd
8cc
=9
8dd
8ff
8dd
8cc
=10
8.a
16g
16a
16g
16a
16cc
=11
8dd
16dd
16ff
4dd}
=12
{8.cc
16dd
8cc
8a
=13
8.g
16a
4cc
=14
8cc
8cc
8cc
8e
=15
2d}
=16
{8.a
16g
8f
8g
=17
8a
8g
4a
=18
4.cc
8e
=19
2d}
=20
{8.a
16g
8f
8g
=21
8a
8g
4a
=22
4.cc
8e
=23
2d}
=24
{8.gg
16ee
4dd
=25
8.gg
16ee
4dd
=26
8.dd
16ff
8a
8cc
=27
8dd
8cc
4dd}
=28
{8cc
8dd
8cc
8a
=29
8g
8a
4cc
=30
8cc
8cc
8cc
8e
=31
2d}
==
!!!AGN: Dui hua; Wettkampf; dui chang; Wechselgesang
!! sehr heiter; viele Fuellwoerter. Die zweite Aufnahme kam zustande,
!!    weil ich meinte, schneller koenne man das doch nicht mehr singen.
!!    Typisches 12-Monats-Lied. Es ist ein Wettkampflied, bei dem es
!!    darum geht, immer schneller zu singen, damit diejenigen ausscheiden,
!!    die Fehler machen. Gesungen wird es von 2 Einzelnen oder von 2
!!    Gruppen. -- Die Han leben in dieser Provinz erst seit der Ming-Dyn.
!!    Saengerin: Huang Bai
!!    Diese Sammlung enthaelt mit Stand 1987 wenigstens 32 Aufnahmen
!!    mit dem Titel "Dui hua"
!!    C0046, C0495, C0136
!!    Vereinzelt Verzierungen.
!!!ONB: ESAC (Essen Associative Code) Database: CHINA_026
!!!AMT: simple duple
!!!AIN: vox
!!!EED: Helmut Schaffrath
!!!EEV: 1.0
*-
